dist/images/clients/playstation.svg

<svg fill="none" height="77" viewBox="0 0 99 77" width="99" xmlns="http://www.w3.org/2000/svg" xmlns:xlink="http://www.w3.org/1999/xlink"><clipPath id="a"><path d="m0 0h99v77h-99z"/></clipPath><g clip-path="url(#a)"><path clip-rule="evenodd" d="m97.6334 58.6689c-1.9145 2.4269-6.6051 4.1582-6.6051 4.1582l-34.8931 12.5929v-9.287l25.679-9.1931c2.914-1.049 3.3615-2.532.9928-3.3104-2.3642-.7807-6.6451-.557-9.5614.4965l-17.1104 6.055v-9.6383l.9862-.3355s4.9444-1.7581 11.8967-2.532c6.9524-.7694 15.4652.1051 22.1482 2.6506 7.5312 2.3911 8.3794 5.9162 6.4671 8.3431zm-38.1767-15.8139v-23.75c0-2.7892-.512-5.357-3.1167-6.084-1.9946-.6419-3.2324 1.219-3.2324 4.0061v59.4755l-15.9639-5.0908v-70.914444c6.7876 1.266014 16.6763 4.258804 21.9924 6.059404 13.5196 4.66364 18.1033 10.46804 18.1033 23.54644 0 12.7473-7.8317 17.5787-17.7827 12.7518zm-51.60501 22.3072c-7.731512-2.1875-9.01824-6.746-5.49421-9.372 3.2569-2.4247 8.79562-4.2499 8.79562-4.2499l22.8895-8.1776v9.3229l-16.4714 5.9229c-2.9096 1.0491-3.3571 2.5343-.9929 3.3127 2.3664.7784 6.6496.5569 9.5637-.4944l7.9006-2.8809v8.3409c-.5008.0895-1.0596.1789-1.5761.2662-7.9029 1.2973-16.3201.756-24.61481-1.9908zm84.69711 3.6929c.9995 0 1.9368.3892 2.6425 1.1072.7057.7069 1.0952 1.6508 1.0952 2.6528 0 1.0066-.3895 1.946-1.0952 2.6528-.7057.7136-1.643 1.1028-2.6425 1.1028-.9996 0-1.9346-.3892-2.6425-1.1028-.7057-.7068-1.093-1.6462-1.093-2.6528 0-2.0712 1.674-3.76 3.7355-3.76zm-3.1078 3.76c0 .8344.3228 1.6195.9106 2.2055.5854.595 1.369.9171 2.1972.9171 1.7164 0 3.1077-1.4002 3.1077-3.1226 0-.8365-.3205-1.6216-.9105-2.2099-.5855-.595-1.3691-.9148-2.1972-.9148-.8282 0-1.6118.3198-2.1972.9148-.5878.5883-.9106 1.3734-.9106 2.2099zm4.2365-2.0242c.4096.1812.6166.5301.6166 1.0266 0 .255-.0534.4698-.1625.6375-.0779.1208-.1892.2192-.3139.3042.0979.0582.1848.1275.2493.208.0891.1164.1403.302.147.5548l.02.5345c.0067.1432.0156.2528.0379.3199.0223.0984.0645.1611.118.1812l.0556.0268v.0604.0917.0918h-.0913-.6611-.0535l-.0267-.047c-.0223-.0447-.0378-.0962-.0534-.1633-.0111-.0604-.0223-.1655-.029-.3266l-.0334-.6643c-.0089-.2304-.0868-.3735-.2337-.4496-.0913-.0424-.2427-.0626-.4475-.0626h-1.1331v1.6217.0917h-.0935-.5388-.0912v-.0917-3.9971-.0917h.0912 1.8411c.3161 0 .581.0469.7859.1431zm-1.9947 1.6843h1.1532c.2315 0 .4163-.0426.5476-.1298.1202-.0872.1781-.246.1781-.4764 0-.2505-.0824-.4138-.256-.501-.0957-.047-.2293-.0738-.3985-.0738h-1.2244z" fill="#1f1f1f" fill-rule="evenodd"/></g></svg>

<svg width="99" height="77" viewBox="0 0 99 77" fill="none" xmlns="http://www.w3.org/2000/svg">
<g clip-path="url(#clip0_8_4)">
<path fill-rule="evenodd" clip-rule="evenodd" d="M97.6334 58.6689C95.7189 61.0958 91.0283 62.8271 91.0283 62.8271L56.1352 75.42V66.133L81.8142 56.9399C84.7282 55.8909 85.1757 54.4079 82.807 53.6295C80.4428 52.8488 76.1619 53.0725 73.2456 54.126L56.1352 60.181V50.5427L57.1214 50.2072C57.1214 50.2072 62.0658 48.4491 69.0181 47.6752C75.9705 46.9058 84.4833 47.7803 91.1663 50.3258C98.6975 52.7169 99.5457 56.242 97.6334 58.6689ZM59.4567 42.855V19.105C59.4567 16.3158 58.9447 13.748 56.34 13.021C54.3454 12.3791 53.1076 14.24 53.1076 17.0271V76.5026L37.1437 71.4118V0.497356C43.9313 1.76337 53.82 4.75616 59.1361 6.55676C72.6557 11.2204 77.2394 17.0248 77.2394 30.1032C77.2394 42.8505 69.4077 47.6819 59.4567 42.855ZM7.85169 65.1622C0.120178 62.9747 -1.16655 58.4162 2.35748 55.7902C5.61438 53.3655 11.1531 51.5403 11.1531 51.5403L34.0426 43.3627V52.6856L17.5712 58.6085C14.6616 59.6576 14.2141 61.1428 16.5783 61.9212C18.9447 62.6996 23.2279 62.4781 26.142 61.4268L34.0426 58.5459V66.8868C33.5418 66.9763 32.983 67.0657 32.4665 67.153C24.5636 68.4503 16.1464 67.909 7.85169 65.1622ZM92.5488 68.8551C93.5483 68.8551 94.4856 69.2443 95.1913 69.9623C95.897 70.6692 96.2865 71.6131 96.2865 72.6151C96.2865 73.6217 95.897 74.5611 95.1913 75.2679C94.4856 75.9815 93.5483 76.3707 92.5488 76.3707C91.5492 76.3707 90.6142 75.9815 89.9063 75.2679C89.2006 74.5611 88.8133 73.6217 88.8133 72.6151C88.8133 70.5439 90.4873 68.8551 92.5488 68.8551ZM89.441 72.6151C89.441 73.4495 89.7638 74.2346 90.3516 74.8206C90.937 75.4156 91.7206 75.7377 92.5488 75.7377C94.2652 75.7377 95.6565 74.3375 95.6565 72.6151C95.6565 71.7786 95.336 70.9935 94.746 70.4052C94.1605 69.8102 93.3769 69.4904 92.5488 69.4904C91.7206 69.4904 90.937 69.8102 90.3516 70.4052C89.7638 70.9935 89.441 71.7786 89.441 72.6151ZM93.6775 70.5909C94.0871 70.7721 94.2941 71.121 94.2941 71.6175C94.2941 71.8725 94.2407 72.0873 94.1316 72.255C94.0537 72.3758 93.9424 72.4742 93.8177 72.5592C93.9156 72.6174 94.0025 72.6867 94.067 72.7672C94.1561 72.8836 94.2073 73.0692 94.214 73.322L94.234 73.8565C94.2407 73.9997 94.2496 74.1093 94.2719 74.1764C94.2942 74.2748 94.3364 74.3375 94.3899 74.3576L94.4455 74.3844V74.4448V74.5365V74.6283H94.3542H93.6931H93.6396L93.6129 74.5813C93.5906 74.5366 93.5751 74.4851 93.5595 74.418C93.5484 74.3576 93.5372 74.2525 93.5305 74.0914L93.4971 73.4271C93.4882 73.1967 93.4103 73.0536 93.2634 72.9775C93.1721 72.9351 93.0207 72.9149 92.8159 72.9149H91.6828V74.5366V74.6283H91.5893H91.0505H90.9593V74.5366V70.5395V70.4478H91.0505H92.8916C93.2077 70.4478 93.4726 70.4947 93.6775 70.5909ZM91.6828 72.2752H92.836C93.0675 72.2752 93.2523 72.2326 93.3836 72.1454C93.5038 72.0582 93.5617 71.8994 93.5617 71.669C93.5617 71.4185 93.4793 71.2552 93.3057 71.168C93.21 71.121 93.0764 71.0942 92.9072 71.0942H91.6828V72.2752Z" fill="#1F1F1F"/>
</g>
<defs>
<clipPath id="clip0_8_4">
<rect width="99" height="77" fill="white"/>
</clipPath>
</defs>
</svg>
